symbols/web/calendar_today/materialsymbolssharp/calendar_today_gradN25_20px.svg

<svg xmlns="http://www.w3.org/2000/svg" height="20" width="20"><path d="M2.688 18.125V3.583h2.416v-1.75H6.75v1.75h6.5v-1.75h1.646v1.75h2.416v14.542Zm1.645-1.646h11.334V8.417H4.333Zm0-9.708h11.334V5.229H4.333Zm0 0V5.229v1.542Z"/></svg>

<svg xmlns="http://www.w3.org/2000/svg" height="20" width="20"><path d="M2.688 18.125V3.583H5.104V1.833H6.75V3.583H13.25V1.833H14.896V3.583H17.312V18.125ZM4.333 16.479H15.667V8.417H4.333ZM4.333 6.771H15.667V5.229H4.333ZM4.333 6.771V5.229V6.771Z"/></svg>
